X:1
T: Dublin Hornpipe
C:
R:Reel
Q: 232
K:D
M:4/4
L:1/8
|:((3ABc) |dc df ec Ac|dB GB AF DF|GB FB EB df|ed cB AB cd|
eA A1/2A1/2A fA A1/2A1/2A|gf ge aA A2|((3ABc) ((3dcB) ((3ABG) ((3FGE) |D2 D2 D2:|
d2|:ce df gf ge|de fg ag af|bg ea fd df|ed cB A2 Ad|
ce df gf ge|de fg ag af|bg ea fd df|1ed cB Ag fe:||2ed cB A2||
